X:4879
T:Es waren zwei Kningskinder...
R:Volksweise
O:
S:source
B:Frau Nachtigall (Straburg - 1928)
Z:<anamnese@caramail.com> -- http://anamnese.fr.st
N:p.11
M:C
L:1/4
Q:1/4=150
K:G
D | B B/ B/ B A | (A3/2G/) G D | cc/ c/ c/B/ d/ B/ |
A2 zD | d-d/ e/ d c/ c/ | (Bd) d/c/ B/A/ | G G/ G/ B/A/ G/A |
B2 A2 | B B/ B/ d/c/ B/A/ | G2 z |]
W:1. Es waren zwei Kningskinder, die hatten einander so lieb, 
W: sie konnten zusammen nicht kommen, das Wasser war viel zu tief,
W: das Wasser war viel zu tief.
